Hatter-kde/actions/22/object-rotate-right.svg

<svg xmlns="http://www.w3.org/2000/svg" viewBox="0 0 22 22">
  <defs id="defs3051">
    <style type="text/css" id="current-color-scheme">
      .ColorScheme-Text {
        color:#363636;
      }
      </style>
  </defs>
 <path 
    style="fill:currentColor;fill-opacity:1;stroke:none" 
    d="M 9.5996094 3 L 8.8925781 3.7070312 L 11.185547 6 L 8.9003906 6 L 8 6 L 8 7 L 8.9003906 7 L 11.185547 7 L 8.8925781 9.2929688 L 9.5996094 10 L 12.892578 6.7070312 L 13.099609 6.5 L 12.892578 6.2929688 L 9.5996094 3 z M 6.5 6 C 6.223 6 6 6.223 6 6.5 C 6 6.777 6.223 7 6.5 7 C 6.777 7 7 6.777 7 6.5 C 7 6.223 6.777 6 6.5 6 z M 3.5 8 C 3.223 8 3 8.223 3 8.5 C 3 8.777 3.223 9 3.5 9 C 3.777 9 4 8.777 4 8.5 C 4 8.223 3.777 8 3.5 8 z M 15.050781 8 L 9 14.050781 L 13.949219 19 L 20 12.949219 L 15.050781 8 z M 15.050781 9.4140625 L 18.585938 12.949219 L 13.808594 17.726562 L 10.273438 14.191406 L 15.050781 9.4140625 z M 2.5 11 C 2.223 11 2 11.223 2 11.5 C 2 11.777 2.223 12 2.5 12 C 2.777 12 3 11.777 3 11.5 C 3 11.223 2.777 11 2.5 11 z M 3.5 14 C 3.223 14 3 14.223 3 14.5 C 3 14.777 3.223 15 3.5 15 C 3.777 15 4 14.777 4 14.5 C 4 14.223 3.777 14 3.5 14 z M 6.5 16 C 6.223 16 6 16.223 6 16.5 C 6 16.777 6.223 17 6.5 17 C 6.777 17 7 16.777 7 16.5 C 7 16.223 6.777 16 6.5 16 z "
    class="ColorScheme-Text"
    />  
</svg>

<?xml version="1.0" encoding="UTF-8"?>
<svg viewBox="0 0 22 22" xmlns="http://www.w3.org/2000/svg">
 <defs id="defs3051">
  <style id="current-color-scheme" type="text/css">.ColorScheme-Text {
        color:#363636;
      }</style>
 </defs>
 <path class="ColorScheme-Text" d="m9.5996 3-0.70703 0.70703 2.293 2.293h-2.2852-0.90039v1h0.90039 2.2852l-2.293 2.293 0.70703 0.70703 3.5-3.5-3.5-3.5zm-3.0996 3c-0.277 0-0.5 0.223-0.5 0.5s0.223 0.5 0.5 0.5 0.5-0.223 0.5-0.5-0.223-0.5-0.5-0.5zm-3 2c-0.277 0-0.5 0.223-0.5 0.5s0.223 0.5 0.5 0.5 0.5-0.223 0.5-0.5-0.223-0.5-0.5-0.5zm11.551 0-6.0508 6.0508 4.9492 4.9492 6.0508-6.0508-4.9492-4.9492zm0 1.4141 3.5352 3.5352-4.7773 4.7773-3.5352-3.5352 4.7773-4.7773zm-12.551 1.5859c-0.277 0-0.5 0.223-0.5 0.5s0.223 0.5 0.5 0.5 0.5-0.223 0.5-0.5-0.223-0.5-0.5-0.5zm1 3c-0.277 0-0.5 0.223-0.5 0.5s0.223 0.5 0.5 0.5 0.5-0.223 0.5-0.5-0.223-0.5-0.5-0.5zm3 2c-0.277 0-0.5 0.223-0.5 0.5s0.223 0.5 0.5 0.5 0.5-0.223 0.5-0.5-0.223-0.5-0.5-0.5z" fill="currentColor"/>
</svg>
